data/styles/clear/style-night/symbols/theatre-m.svg

<svg height="24" viewBox="0 0 24 24" width="24"><g fill="none" fill-rule="evenodd"><circle cx="12" cy="12" fill="#fff" opacity=".4" r="12"/><circle cx="12" cy="12" fill="#4d361f" r="11"/><path d="m6.72115385 6c-.35897539 0-.72115385.36221538-.72115385.7212v5.0769231c0 1.5910154.70512923 3.4903384 3.57692308 3.4903384.25751077 0-.10992923-.024923.11538461-.0572307v-1.8461539h-2.30769231s.51276924-1.8461538 2.30769231-1.8461538v-1.5288c0-.65815387.10128923-1.34215387.46153851-1.70243079.36024-.36027693.8198584-1.20738462 2.3076923-.462l.9230769.462v-1.58603077c0-.35898462-.3621785-.7212-.7211539-.7212-.6666646 0-2.0480769.92307692-2.97115381.92307692-.92307692 0-2.30448923-.92307692-2.97115384-.92307692zm1.125 1.84615385c.50979692 0 .92307692.41326153.92307692.92307692 0 .50981538-.41328.92307692-.92307692.92307692-.50979693 0-.92307693-.41326154-.92307693-.92307692 0-.50981539.41328-.92307692.92307693-.92307692zm3.49038465.92307692c-.3384462 0-.7211539.36221538-.7211539.7212v4.81726153c0 1.5910154.8205139 3.6923077 3.6923077 3.6923077 2.8717939 0 3.6923077-2.1012923 3.6923077-3.6923077v-4.81726153c0-.35898462-.3827077-.7212-.7211538-.7212-.6666647 0-2.048077.92307692-2.9711539.92307692s-2.3044892-.92307692-2.9711538-.92307692zm1.125 1.84615383c.5097969 0 .9230769.4132616.9230769.9230769 0 .5098154-.41328.923077-.9230769.923077-.509797 0-.923077-.4132616-.923077-.923077 0-.5098153.41328-.9230769.923077-.9230769zm3.6923077 0c.5097969 0 .9230769.4132616.9230769.9230769 0 .5098154-.41328.923077-.9230769.923077-.509797 0-.923077-.4132616-.923077-.923077 0-.5098153.41328-.9230769.923077-.9230769zm-4.1538462 3.6923077h2.3653846 2.25s-.5128154 1.8461539-2.3076923 1.8461539c-1.7948677 0-2.3076923-1.8461539-2.3076923-1.8461539z" fill="#fff" opacity=".6"/></g></svg>

<svg width="24" height="24" viewBox="0 0 24 24">
  <g fill="none" fill-rule="evenodd">
    <circle cx="12" cy="12" r="12" fill="#FFF" opacity=".4"/>
    <circle cx="12" cy="12" r="11" fill="#4C351E"/>
    <path fill="#FFF" d="M6.72115385,6 C6.36217846,6 6,6.36221538 6,6.7212 L6,11.7981231 C6,13.3891385 6.70512923,15.2884615 9.57692308,15.2884615 C9.83443385,15.2884615 9.46699385,15.2635385 9.69230769,15.2312308 L9.69230769,13.3850769 L7.38461538,13.3850769 C7.38461538,13.3850769 7.89738462,11.5389231 9.69230769,11.5389231 L9.69230769,10.0101231 C9.69230769,9.35196923 9.79359692,8.66796923 10.1538462,8.30769231 C10.5140862,7.94741538 10.9737046,7.10030769 12.4615385,7.84569231 L13.3846154,8.30769231 L13.3846154,6.72166154 C13.3846154,6.36267692 13.0224369,6.00046154 12.6634615,6.00046154 C11.9967969,6.00046154 10.6153846,6.92353846 9.69230769,6.92353846 C8.76923077,6.92353846 7.38781846,6.00046154 6.72115385,6.00046154 L6.72115385,6 Z M7.84615385,7.84615385 C8.35595077,7.84615385 8.76923077,8.25941538 8.76923077,8.76923077 C8.76923077,9.27904615 8.35595077,9.69230769 7.84615385,9.69230769 C7.33635692,9.69230769 6.92307692,9.27904615 6.92307692,8.76923077 C6.92307692,8.25941538 7.33635692,7.84615385 7.84615385,7.84615385 L7.84615385,7.84615385 Z M11.3365385,8.76923077 C10.9980923,8.76923077 10.6153846,9.13144615 10.6153846,9.49043077 L10.6153846,14.3076923 C10.6153846,15.8987077 11.4358985,18 14.3076923,18 C17.1794862,18 18,15.8987077 18,14.3076923 L18,9.49043077 C18,9.13144615 17.6172923,8.76923077 17.2788462,8.76923077 C16.6121815,8.76923077 15.2307692,9.69230769 14.3076923,9.69230769 C13.3846154,9.69230769 12.0032031,8.76923077 11.3365385,8.76923077 L11.3365385,8.76923077 Z M12.4615385,10.6153846 C12.9713354,10.6153846 13.3846154,11.0286462 13.3846154,11.5384615 C13.3846154,12.0482769 12.9713354,12.4615385 12.4615385,12.4615385 C11.9517415,12.4615385 11.5384615,12.0482769 11.5384615,11.5384615 C11.5384615,11.0286462 11.9517415,10.6153846 12.4615385,10.6153846 L12.4615385,10.6153846 Z M16.1538462,10.6153846 C16.6636431,10.6153846 17.0769231,11.0286462 17.0769231,11.5384615 C17.0769231,12.0482769 16.6636431,12.4615385 16.1538462,12.4615385 C15.6440492,12.4615385 15.2307692,12.0482769 15.2307692,11.5384615 C15.2307692,11.0286462 15.6440492,10.6153846 16.1538462,10.6153846 L16.1538462,10.6153846 Z M12,14.3076923 L14.3653846,14.3076923 L16.6153846,14.3076923 C16.6153846,14.3076923 16.1025692,16.1538462 14.3076923,16.1538462 C12.5128246,16.1538462 12,14.3076923 12,14.3076923 L12,14.3076923 Z" opacity=".6"/>
  </g>
</svg>
